X: 77
T:Just As She Was In The Morning. JBi.76
M:6/8
L:1/8
Q:120
S:James Biggins MS,Leeds,1779
R:Jig
O:England
A:Yorkshire
Z:vmp.Chris Partington
K:F
f/e/|d2D (F/G/A)G|E2g fef "sic"d|D (F/G/A)G A|f2::!
dfa afd|ceg gec|dfa afd|f3a3|!
dfa gea|fdf edc|d2D (F/G/A)G|A3f3:||!
|zzzz|zzzz|zzzz|!
